X: 24088
T: Long Leash, The
R: reel
M: 4/4
K: Dmajor
|:"D"d2a2 g2e2|d2B2 A4|"G"B2G2 B2d2|"A"A2B2 c4|
"D"d2a2 g2a2|"Bm"f2g2 a2A2|"G"B2c2 d2f2|"Em"B2"A"A2 "D"d4:|
|:"D"d2fg a2B2|"Bm"B2de f2A2|"G"B2d2 f2G2|B2dc "A"B2A2|
"D"d2fg a2d2|"Bm"B2de f2a2|"G"B2d2 "D"f2d2|"G"B2"A"c2 "D"d4:|

